src/Icon/svgs/like.svg

<svg width="24" height="24" viewBox="0 0 24 24" fill="none" xmlns="http://www.w3.org/2000/svg">
<path fill-rule="evenodd" clip-rule="evenodd" d="M2 10.6799C2 9.98882 2.50292 9.42857 3.13495 9.42857C3.13495 9.42857 4.78158 9.42857 5.4084 9.42857C5.4084 13.619 5.4084 17.8095 5.4084 22H3.13495C2.50813 22 2 21.4272 2 20.7486V10.6799ZM13.3613 8.17143H19.7277C20.9827 8.17143 22 9.29711 22 10.6857C22 10.8365 21.9877 10.9871 21.9633 11.1355L20.3477 20.9677C20.2495 21.5655 19.779 22 19.2299 22H7.68066C7.68066 17.8095 7.68066 13.619 7.68066 9.42857C9.95293 3.14286 11.0891 0 11.0891 0C12.7933 0 13.9294 1.25714 13.9294 3.14286C13.9294 4.4 13.74 6.07619 13.3613 8.17143Z" fill="#1B1C1D"/>
</svg>

<svg xmlns="http://www.w3.org/2000/svg" width="24" height="24" fill="none"><path fill-rule="evenodd" d="M2 10.68c0-.691.503-1.251 1.135-1.251h2.273V22H3.135C2.508 22 2 21.427 2 20.749V10.68zm11.361-2.508h6.366c1.255 0 2.272 1.126 2.272 2.514 0 .151-.012.301-.037.45l-1.616 9.832C20.25 21.566 19.779 22 19.23 22H7.681V9.429L11.089 0c1.704 0 2.84 1.257 2.84 3.143 0 1.257-.189 2.933-.568 5.029z" fill="#1B1C1D"/></svg>
